; generated by PrusaSlicer 2.6.0+win64 on 2024-01-08 at 23:00:27 UTC


;
;
; 

; external perimeters extrusion width = 0.45mm
; perimeters extrusion width = 0.45mm
; infill extrusion width = 0.45mm
; solid infill extrusion width = 0.45mm
; top infill extrusion width = 0.40mm
; first layer extrusion width = 0.42mm

M73 P0 R35
M73 Q0 S35
M201 X1000 Y1000 Z200 E5000 ; sets maximum accelerations, mm/sec^2
M203 X200 Y200 Z12 E120 ; sets maximum feedrates, mm / sec
M204 S1250 T1250 ; sets acceleration (S) and retract acceleration (R), mm/sec^2
M205 X8.00 Y8.00 Z0.40 E4.50 ; sets the jerk limits, mm/sec
M205 S0 T0 ; sets the minimum extruding and travel feed rate, mm/sec
;TYPE:Custom
M862.3 P "MK3S" ; printer model check
M862.1 P0.4 ; nozzle diameter check
M115 U3.13.1 ; tell printer latest fw version
G90 ; use absolute coordinates
M83 ; extruder relative mode
M104 S255 ; set extruder temp
M140 S100 ; set bed temp
M190 S100 ; wait for bed temp
M109 S255 ; wait for extruder temp
G28 W ; home all without mesh bed level
G80 ; mesh bed leveling

G1 Z0.2 F720
G1 Y-3 F1000 ; go outside print area
G92 E0
G1 X60 E9 F1000 ; intro line
G1 X100 E12.5 F1000 ; intro line

G92 E0
M221 S95

; Don't change E values below. Excessive value can damage the printer.
M907 E430 ; set extruder motor current
G21 ; set units to millimeters
G90 ; use absolute coordinates
M83 ; use relative distances for extrusion
M900 K0.04 ; Filament gcode LA 1.5
M900 K20 ; Filament gcode LA 1.0
M107
;LAYER_CHANGE
;Z:0.2
;HEIGHT:0.2
;BEFORE_LAYER_CHANGE
G92 E0.0
;0.2


G1 E-.8 F2100
G1 Z.4 F720
;AFTER_LAYER_CHANGE
;0.2
G1 X96.969 Y89.964 F10800
G1 Z.2 F720
G1 E.8 F2100
M204 S800
;TYPE:Skirt/Brim
;WIDTH:0.42
G1 F1200
G1 X108.714 Y78.219 E.52079
G1 X110.395 Y77.523 E.05705
G1 X139.605 Y77.523 E.91586
G1 X141.286 Y78.219 E.05705
G1 X153.031 Y89.964 E.52079
G1 X153.725 Y91.555 E.05442
G1 X153.927 Y96.945 E.16912
G1 X153.927 Y118.555 E.67757
G1 X153.231 Y120.236 E.05705
G1 X141.486 Y131.981 E.52079
G1 X139.805 Y132.677 E.05705
G1 X110.195 Y132.677 E.9284
G1 X108.514 Y131.981 E.05705
G1 X96.769 Y120.236 E.52079
G1 X96.073 Y118.555 E.05705
G1 X96.075 Y96.855 E.68039
G1 X96.275 Y91.555 E.1663
G1 X96.945 Y90.019 E.05254
M204 S1000
;WIPE_START
G1 F8640
G1 X99.392 Y87.566 E-.8
;WIPE_END
G1 Z.6 F720
G1 X100.554 Y92.029 F10800
G1 Z.2 F720
G1 E.8 F2100
M204 S800
G1 F1200
G1 X102.64 Y88.283 E.13444
G1 X105.693 Y84.953 E.14165
G1 X109.523 Y82.327 E.1456
G1 X115.502 Y80.358 E.19737
G1 X133.671 Y80.23 E.56969
G1 X137.082 Y80.954 E.10933
G1 X140.384 Y82.278 E.11154
G1 X144.714 Y85.302 E.1656
G1 X148.459 Y89.959 E.18737
G1 X150.675 Y95.587 E.18965
G1 X151.095 Y102.377 E.2133
G1 X151.347 Y104.188 E.05733
G1 X151.347 Y111.616 E.2329
G1 X149.974 Y117.494 E.18926
M73 Q1 S35
G1 X147.693 Y121.728 E.15079
M73 P1 R35
G1 X144.517 Y125.237 E.1484
G1 X140.544 Y127.945 E.15076
G1 X133.251 Y130.052 E.23802
G1 X116.671 Y130.042 E.51985
G1 X111.231 Y128.714 E.17558
G1 X106.904 Y126.36 E.15445
G1 X103.512 Y123.266 E.14395
G1 X100.804 Y119.289 E.15086
G1 X98.653 Y111.689 E.24765
G1 X98.653 Y104.19 E.23513
G1 X98.877 Y102.558 E.05165
G1 X99.017 Y97.296 E.16504
G1 X100.336 Y92.42 E.15838
G1 X100.524 Y92.081 E.01215
M204 S1000
G1 X100.854 Y92.264 F10800
M204 S800
G1 F1200
G1 X102.933 Y88.521 E.13425
G1 X105.925 Y85.252 E.13895
G1 X109.667 Y82.677 E.14242
G1 X115.534 Y80.735 E.19377
G1 X133.613 Y80.604 E.56687
G1 X136.957 Y81.31 E.10716
G1 X140.187 Y82.6 E.10905
G1 X144.437 Y85.56 E.16239
G1 X148.119 Y90.125 E.18389
G1 X150.3 Y95.64 E.18595
G1 X150.719 Y102.415 E.21283
G1 X150.97 Y104.201 E.05655
G1 X150.97 Y111.595 E.23183
G1 X149.63 Y117.338 E.1849
G1 X147.398 Y121.493 E.14788
G1 X144.285 Y124.939 E.14561
G1 X140.41 Y127.591 E.14723
G1 X133.224 Y129.675 E.2346
G1 X116.693 Y129.665 E.51832
G1 X111.389 Y128.371 E.17118
G1 X107.14 Y126.066 E.15156
G1 X103.81 Y123.034 E.14121
G1 X101.158 Y119.156 E.14731
G1 X99.03 Y111.662 E.24426
G1 X99.03 Y104.203 E.23387
G1 X99.253 Y102.589 E.05109
G1 X99.394 Y97.328 E.16501
G1 X100.677 Y92.582 E.15415
G1 X100.824 Y92.317 E.0095
M204 S1000
G1 X101.154 Y92.499 F10800
M204 S800
G1 F1200
G1 X103.227 Y88.759 E.13407
G1 X106.157 Y85.55 E.13625
G1 X109.811 Y83.026 E.13924
G1 X115.567 Y81.112 E.19019
G1 X133.556 Y80.977 E.56405
G1 X136.833 Y81.666 E.10499
G1 X139.99 Y82.922 E.10653
G1 X144.161 Y85.818 E.15921
G1 X147.779 Y90.291 E.18038
G1 X149.926 Y95.694 E.18229
G1 X150.344 Y102.453 E.21233
G1 X150.592 Y104.214 E.05576
G1 X150.592 Y111.573 E.23074
G1 X149.286 Y117.182 E.18057
G1 X147.102 Y121.257 E.14496
G1 X144.053 Y124.641 E.14282
G1 X140.275 Y127.237 E.14373
G1 X133.145 Y129.306 E.23278
G1 X116.716 Y129.288 E.51512
G1 X111.547 Y128.027 E.16682
M73 P1 R34
G1 X107.377 Y125.771 E.14866
G1 X104.109 Y122.803 E.13842
G1 X101.512 Y119.023 E.1438
G1 X99.408 Y111.636 E.24083
G1 X99.408 Y104.216 E.23265
G1 X99.63 Y102.62 E.05052
G1 X99.77 Y97.361 E.16495
G1 X101.018 Y92.745 E.14993
G1 X101.125 Y92.552 E.00692
M204 S1000
G1 X101.455 Y92.734 F10800
M204 S800
M73 Q2 S35
G1 F1200
G1 X103.52 Y88.996 E.1339
G1 X106.389 Y85.847 E.13357
G1 X109.957 Y83.375 E.1361
M73 P2 R34
G1 X115.6 Y81.489 E.18655
G1 X133.498 Y81.35 E.5612
M73 Q2 S34
G1 X136.709 Y82.023 E.10287
G1 X139.793 Y83.244 E.104
G1 X143.885 Y86.077 E.15605
G1 X147.439 Y90.457 E.17685
G1 X149.551 Y95.747 E.17859
G1 X149.969 Y102.492 E.21189
G1 X150.215 Y104.228 E.05497
G1 X150.215 Y111.551 E.22961
G1 X148.941 Y117.026 E.17625
G1 X146.807 Y121.022 E.14204
G1 X143.821 Y124.343 E.14003
G1 X140.141 Y126.884 E.14022
G1 X133.066 Y128.936 E.23097
G1 X116.739 Y128.911 E.51192
G1 X111.705 Y127.684 E.16246
G1 X107.613 Y125.476 E.14579
G1 X104.406 Y122.57 E.13569
G1 X101.866 Y118.89 E.1402
G1 X99.785 Y111.61 E.2374
G1 X99.785 Y104.229 E.23143
G1 X100.006 Y102.651 E.04996
G1 X100.146 Y97.393 E.16492
G1 X101.359 Y92.908 E.14568
G1 X101.426 Y92.786 E.00436
M204 S1000
G1 X101.756 Y92.968 F10800
M204 S800
G1 F1200
G1 X103.814 Y89.233 E.13371
G1 X106.622 Y86.144 E.13089
G1 X110.102 Y83.724 E.1329
G1 X115.633 Y81.866 E.18294
G1 X133.441 Y81.723 E.55838
G1 X136.586 Y82.38 E.10074
G1 X139.597 Y83.567 E.10148
G1 X143.61 Y86.336 E.15287
G1 X147.1 Y90.625 E.17337
G1 X149.177 Y95.801 E.17487
G1 X149.593 Y102.53 E.21139
G1 X149.838 Y104.241 E.05419
G1 X149.838 Y111.53 E.22854
G1 X148.597 Y116.871 E.17192
G1 X146.511 Y120.788 E.13914
G1 X143.588 Y124.046 E.13724
G1 X140.006 Y126.53 E.13667
G1 X132.987 Y128.566 E.22915
G1 X116.763 Y128.534 E.50869
G1 X111.862 Y127.341 E.15815
G1 X107.849 Y125.181 E.14289
G1 X104.704 Y122.337 E.13295
G1 X102.22 Y118.756 E.13665
G1 X100.162 Y111.583 E.23398
G1 X100.162 Y104.243 E.23014
G1 X100.382 Y102.683 E.0494
G1 X100.523 Y97.426 E.16489
G1 X101.7 Y93.07 E.14148
G1 X101.727 Y93.021 E.00175
M204 S1000
G1 X102.057 Y93.202 F10800
M204 S800
G1 F1200
G1 X104.109 Y89.47 E.13354
G1 X106.856 Y86.441 E.12821
G1 X110.249 Y84.072 E.12975
G1 X115.666 Y82.242 E.17928
G1 X133.384 Y82.097 E.55555
G1 X136.463 Y82.737 E.0986
G1 X139.401 Y83.89 E.09896
G1 X143.335 Y86.595 E.14969
G1 X146.761 Y90.792 E.16987
G1 X148.802 Y95.854 E.17113
G1 X149.218 Y102.569 E.21095
G1 X149.461 Y104.255 E.05341
G1 X149.461 Y111.508 E.22741
G1 X148.252 Y116.715 E.1676
G1 X146.188 Y120.59 E.13766
G1 X143.354 Y123.75 E.13309
G1 X139.871 Y126.177 E.1331
G1 X132.907 Y128.197 E.22735
G1 X116.786 Y128.157 E.50546
G1 X112.02 Y126.997 E.1538
M73 P3 R34
M73 Q3 S34
G1 X108.084 Y124.886 E.14004
G1 X105 Y122.104 E.13023
G1 X102.573 Y118.621 E.1331
G1 X100.539 Y111.557 E.23049
G1 X100.539 Y104.256 E.22892
G1 X100.759 Y102.715 E.04881
G1 X100.899 Y97.458 E.16489
G1 X102.034 Y93.257 E.13644
M204 S1000
G1 X102.383 Y93.393 F10800
M204 S800
G1 F1200
G1 X104.403 Y89.706 E.13182
G1 X107.09 Y86.738 E.12553
G1 X110.396 Y84.42 E.1266
G1 X115.699 Y82.619 E.1756
G1 X133.328 Y82.47 E.55276
G1 X136.341 Y83.094 E.09648
G1 X139.206 Y84.214 E.09645
G1 X143.061 Y86.855 E.14652
G1 X146.423 Y90.961 E.16639
G1 X148.428 Y95.908 E.16737
G1 X148.842 Y102.608 E.21047
G1 X149.084 Y104.269 E.05263
G1 X149.084 Y111.487 E.22632
G1 X147.908 Y116.56 E.16328
G1 X145.866 Y120.393 E.13617
G1 X143.12 Y123.453 E.12891
G1 X139.736 Y125.823 E.12954
G1 X132.828 Y127.827 E.22553
G1 X116.809 Y127.78 E.50227
G1 X112.176 Y126.653 E.1495
G1 X108.319 Y124.59 E.13715
G1 X105.297 Y121.87 E.12748
G1 X102.927 Y118.486 E.12954
G1 X100.916 Y111.53 E.22703
G1 X100.916 Y104.27 E.22763
G1 X101.135 Y102.747 E.04824
G1 X101.275 Y97.49 E.16489
G1 X102.367 Y93.451 E.13119
M204 S1000
G1 X102.724 Y93.554 F10800
M204 S800
G1 F1200
G1 X104.698 Y89.942 E.12906
G1 X107.324 Y87.034 E.12285
G1 X110.543 Y84.768 E.12343
G1 X115.733 Y82.996 E.17195
G1 X133.271 Y82.843 E.54991
G1 X136.219 Y83.451 E.09438
G1 X139.011 Y84.537 E.09393
G1 X142.786 Y87.115 E.14333
G1 X146.084 Y91.129 E.16289
G1 X148.053 Y95.962 E.16363
G1 X148.467 Y102.647 E.21001
G1 X148.707 Y104.282 E.05181
G1 X148.707 Y111.465 E.22522
G1 X147.563 Y116.404 E.15896
G1 X145.544 Y120.196 E.1347
G1 X142.885 Y123.157 E.12478
G1 X139.601 Y125.47 E.12594
G1 X132.749 Y127.457 E.22369
G1 X116.833 Y127.403 E.49904
G1 X112.333 Y126.309 E.1452
G1 X108.554 Y124.294 E.13428
G1 X105.593 Y121.635 E.12478
G1 X103.28 Y118.351 E.12594
G1 X101.293 Y111.503 E.22357
G1 X101.293 Y104.284 E.22635
G1 X101.511 Y102.779 E.04768
G1 X101.652 Y97.523 E.16486
G1 X102.709 Y93.612 E.12703
M204 S1000
G1 X103.073 Y93.71 F10800
M204 S800
G1 F1200
G1 X105.018 Y90.143 E.12739
G1 X107.59 Y87.303 E.12014
G1 X110.738 Y85.093 E.1206
G1 X115.826 Y83.363 E.1685
G1 X133.215 Y83.217 E.54524
G1 X136.097 Y83.808 E.09224
G1 X138.854 Y84.881 E.09276
G1 X142.551 Y87.411 E.14046
G1 X145.774 Y91.346 E.15948
G1 X147.692 Y96.075 E.16001
G1 X148.092 Y102.686 E.20766
G1 X148.33 Y104.296 E.05103
M73 Q4 S34
G1 X148.33 Y111.444 E.22412
G1 X147.202 Y116.295 E.15616
M73 P4 R34
G1 X145.223 Y119.997 E.13162
G1 X142.619 Y122.889 E.12202
G1 X139.41 Y125.143 E.12296
G1 X132.723 Y127.08 E.21829
G1 X116.9 Y127.032 E.49612
G1 X112.445 Y125.949 E.14375
G1 X108.752 Y123.973 E.13132
G1 X105.861 Y121.369 E.12199
G1 X103.607 Y118.16 E.12296
G1 X101.67 Y111.477 E.21816
G1 X101.67 Y104.297 E.22512
G1 X101.888 Y102.812 E.04706
G1 X102.022 Y97.6 E.16347
G1 X103.057 Y93.768 E.12446
M204 S1000
G1 X103.421 Y93.867 F10800
M204 S800
G1 F1200
G1 X103.441 Y93.794 E.00237
G1 X105.337 Y90.345 E.1234
G1 X107.854 Y87.572 E.11742
G1 X110.932 Y85.417 E.11781
G1 X115.918 Y83.73 E.16504
G1 X133.158 Y83.59 E.54057
G1 X136.006 Y84.174 E.09116
G1 X138.697 Y85.224 E.09057
G1 X142.315 Y87.707 E.13759
G1 X145.464 Y91.562 E.15607
G1 X147.331 Y96.188 E.15641
G1 X147.716 Y102.725 E.20532
G1 X147.953 Y104.311 E.05028
G1 X147.953 Y111.422 E.22296
G1 X146.84 Y116.184 E.15333
G1 X144.901 Y119.799 E.12862
G1 X142.354 Y122.62 E.11917
G1 X139.219 Y124.816 E.12001
G1 X132.698 Y126.703 E.21285
G1 X116.968 Y126.66 E.4932
G1 X112.558 Y125.588 E.1423
G1 X108.951 Y123.651 E.12837
G1 X106.13 Y121.104 E.11917
G1 X103.934 Y117.969 E.12001
G1 X102.047 Y111.45 E.21279
G1 X102.047 Y104.311 E.22384
G1 X102.264 Y102.844 E.0465
G1 X102.391 Y97.676 E.16209
G1 X103.405 Y93.925 E.12183
M204 S1000
G1 X103.769 Y94.023 F10800
M204 S800
G1 F1200
G1 X103.799 Y93.915 E.00351
G1 X105.657 Y90.546 E.12063
G1 X108.119 Y87.841 E.11468
G1 X111.125 Y85.742 E.11495
G1 X116.01 Y84.097 E.16162
G1 X133.102 Y83.963 E.53592
G1 X135.884 Y84.531 E.08903
G1 X138.539 Y85.567 E.08936
G1 X142.079 Y88.002 E.13472
G1 X145.154 Y91.778 E.15269
G1 X146.97 Y96.3 E.15279
G1 X147.341 Y102.764 E.20301
M73 P4 R33
G1 X147.576 Y104.325 E.0495
G1 X147.576 Y111.4 E.22183
G1 X146.479 Y116.074 E.15053
G1 X144.58 Y119.6 E.12557
G1 X142.089 Y122.351 E.11636
G1 X139.029 Y124.49 E.11706
G1 X132.672 Y126.326 E.20747
G1 X117.035 Y126.288 E.49029
G1 X112.67 Y125.227 E.14085
G1 X109.15 Y123.33 E.12537
G1 X106.399 Y120.839 E.11636
G1 X104.26 Y117.779 E.11706
M73 Q4 S33
G1 X102.424 Y111.424 E.20741
G1 X102.424 Y104.326 E.22255
G1 X102.641 Y102.876 E.04597
G1 X102.761 Y97.752 E.1607
G1 X103.754 Y94.081 E.11924
M204 S1000
G1 X104.118 Y94.179 F10800
M204 S800
G1 F1200
G1 X104.157 Y94.035 E.00468
G1 X105.976 Y90.748 E.11779
G1 X108.383 Y88.111 E.11195
G1 X111.319 Y86.067 E.11217
G1 X116.101 Y84.464 E.15814
G1 X133.046 Y84.337 E.53131
G1 X135.792 Y84.898 E.08788
G1 X138.382 Y85.911 E.0872
G1 X141.843 Y88.297 E.13181
M73 Q5 S33
G1 X144.843 Y91.993 E.14926
M73 P5 R33
G1 X146.608 Y96.411 E.14917
G1 X146.965 Y102.803 E.20073
G1 X147.199 Y104.339 E.04872
G1 X147.199 Y111.378 E.2207
G1 X146.118 Y115.963 E.1477
G1 X144.26 Y119.4 E.1225
G1 X141.824 Y122.082 E.1136
G1 X138.839 Y124.162 E.11407
G1 X132.646 Y125.949 E.2021
G1 X117.102 Y125.917 E.48737
G1 X112.783 Y124.867 E.13936
G1 X109.35 Y123.01 E.12238
G1 X106.668 Y120.574 E.1136
G1 X104.588 Y117.589 E.11407
G1 X102.801 Y111.397 E.20207
G1 X102.801 Y104.34 E.22127
G1 X103.017 Y102.909 E.04538
G1 X103.131 Y97.829 E.15932
G1 X104.102 Y94.237 E.11667
M204 S1000
G1 X104.466 Y94.336 F10800
M204 S800
G1 F1200
G1 X104.515 Y94.156 E.00585
G1 X106.295 Y90.951 E.11495
G1 X108.647 Y88.381 E.10923
G1 X111.511 Y86.392 E.10933
G1 X116.192 Y84.831 E.15472
G1 X132.99 Y84.71 E.5267
G1 X135.67 Y85.255 E.08575
G1 X138.224 Y86.254 E.08599
G1 X141.606 Y88.592 E.12891
G1 X144.503 Y92.16 E.1441
G1 X146.246 Y96.522 E.14728
G1 X146.59 Y102.842 E.19845
G1 X146.822 Y104.354 E.04796
G1 X146.822 Y111.356 E.21954
G1 X145.757 Y115.851 E.14484
G1 X143.939 Y119.2 E.11948
G1 X141.56 Y121.812 E.11078
G1 X138.649 Y123.835 E.11115
G1 X132.62 Y125.572 E.19672
G1 X117.17 Y125.545 E.48442
G1 X112.896 Y124.506 E.13791
G1 X109.55 Y122.689 E.11938
G1 X106.938 Y120.31 E.11078
G1 X104.915 Y117.399 E.11115
G1 X103.178 Y111.371 E.19669
G1 X103.178 Y104.354 E.22001
G1 X103.393 Y102.942 E.04478
G1 X103.501 Y97.905 E.15797
G1 X104.45 Y94.393 E.11407
M204 S1000
G1 X104.815 Y94.492 F10800
M204 S800
G1 F1200
G1 X104.873 Y94.277 E.00698
G1 X106.613 Y91.154 E.11209
G1 X108.91 Y88.652 E.10649
G1 X111.704 Y86.717 E.10656
G1 X116.283 Y85.198 E.15126
G1 X132.935 Y85.084 E.52212
G1 X135.579 Y85.621 E.08459
G1 X138.065 Y86.597 E.08374
G1 X141.369 Y88.886 E.12603
G1 X144.192 Y92.374 E.14069
G1 X145.885 Y96.632 E.14367
G1 X146.214 Y102.881 E.1962
G1 X146.445 Y104.368 E.04718
G1 X146.445 Y111.334 E.21841
G1 X145.396 Y115.739 E.14198
G1 X143.619 Y118.999 E.11641
G1 X141.296 Y121.542 E.10799
G1 X138.46 Y123.508 E.1082
G1 X132.594 Y125.195 E.19138
G1 X117.237 Y125.173 E.48151
G1 X113.009 Y124.145 E.13643
G1 X109.751 Y122.369 E.11634
G1 X107.208 Y120.046 E.10799
G1 X105.242 Y117.21 E.1082
G1 X103.555 Y111.344 E.19138
G1 X103.555 Y104.369 E.2187
G1 X103.77 Y102.974 E.04426
G1 X103.871 Y97.981 E.15658
G1 X104.799 Y94.55 E.11144
M204 S1000
G1 X105.163 Y94.648 F10800
M204 S800
G1 F1200
G1 X105.231 Y94.398 E.00812
G1 X106.931 Y91.358 E.10921
G1 X109.142 Y88.95 E.1025
G1 X111.896 Y87.043 E.10503
G1 X116.373 Y85.565 E.14782
G1 X132.879 Y85.457 E.51755
G1 X135.457 Y85.978 E.08247
G1 X137.907 Y86.94 E.08253
G1 X141.132 Y89.181 E.12313
G1 X143.88 Y92.589 E.13727
M73 P6 R33
M73 Q6 S33
G1 X145.523 Y96.742 E.14003
G1 X145.838 Y102.92 E.19396
G1 X146.068 Y104.383 E.04643
G1 X146.068 Y111.312 E.21725
G1 X145.035 Y115.627 E.13912
G1 X143.3 Y118.798 E.11333
G1 X141.032 Y121.272 E.10523
G1 X138.271 Y123.18 E.10523
G1 X132.568 Y124.818 E.18604
G1 X117.304 Y124.801 E.47859
G1 X113.122 Y123.785 E.13494
G1 X109.952 Y122.05 E.11331
G1 X107.478 Y119.782 E.10523
G1 X105.57 Y117.021 E.10523
G1 X103.932 Y111.318 E.18604
G1 X103.932 Y104.383 E.21744
G1 X104.147 Y103.007 E.04367
G1 X104.242 Y98.057 E.15523
G1 X105.147 Y94.706 E.10883
M204 S1000
G1 X105.511 Y94.804 F10800
M204 S800
G1 F1200
G1 X105.588 Y94.519 E.00926
G1 X107.249 Y91.562 E.10634
G1 X109.405 Y89.221 E.09979
G1 X112.088 Y87.368 E.10224
G1 X116.462 Y85.933 E.14434
G1 X132.823 Y85.83 E.513
G1 X135.366 Y86.344 E.08135
G1 X137.748 Y87.282 E.08027
G1 X140.894 Y89.474 E.12022
G1 X143.568 Y92.802 E.13386
G1 X145.16 Y96.851 E.13641
G1 X145.463 Y102.959 E.19175
G1 X145.69 Y104.398 E.04568
G1 X145.69 Y111.289 E.21606
G1 X144.674 Y115.514 E.13625
G1 X142.98 Y118.596 E.11027
G1 X140.801 Y120.973 E.10111
G1 X138.082 Y122.852 E.10363
